X:3137
T:Johnny's Wedding
O:england
M:4/4
L:1/8
R:Reel
D:Session tape - Derrygonelly, Fermanagh 1993
K:G
cded cAA2 | Bcdc BGG2 |1cded cAA2 | EGAG A4 :|2 c4 B3G | EDEG A4::cdef g2eg |\
aged cAA2 | cdef g2fg | ageg a2ed| cdef g2fg | a2ed cAA2 | c4 B3G | EDEG A4 :|


